icon-themes/sifr_svg/cmd/lc_fontworkshapetype.fontwork-arch-right-curve.svg

<svg viewBox="0 0 24 24" xmlns="http://www.w3.org/2000/svg"><g fill="#555753"><path d="m17 11.99c-.003963-4.7655954-3.063425-9.4941324-7.392577-11l-3.607423 6.41v1.59h.263672c1.547861.1365706 2.73526 1.446126 2.736328 3-.0011 1.553874-1.188467 2.863429-2.736328 3h-.263672v1.6l3.609376 6.41c4.328872-1.503621 7.388355-6.232416 7.390625-11.004205zm-2 0c-.004 3.346755-1.84801 6.925216-4.615234 8.471002l-2.132812-4.033566c1.642629-.833191 2.743351-2.517016 2.748046-4.437436-.002399-1.909838-1.101401-3.5950935-2.74414-4.4297519l2.128907-4.0374083c2.768279 1.5468605 4.613441 5.124622 4.615234 8.4729552z"/><path d="m16 11.99c-.0044 3.693456-3.4 9-6.463618 9l-2.536382-4.107486c2.32345-.474265 3.994184-2.515367 4-4.886719-.003-2.3735545-1.674399-4.4178688-4-4.8925781l2.4256-4.0560495c3.170981-.051372 6.572407 5.2247063 6.574401 8.9486276z" opacity=".35"/></g></svg>

<svg xmlns="http://www.w3.org/2000/svg" viewBox="0 0 24 24">
  <path
     style="fill:#555753"
     d="M 17,11.99 C 16.996037,7.2244046 13.936575,2.4958676 9.607423,0.99 L 6,7.4 V 8.99 h 0.263672 c 1.547861,0.1365706 2.73526,1.446126 2.736328,3 -0.0011,1.553874 -1.188467,2.863429 -2.736328,3 H 6 v 1.6 L 9.609376,23 c 4.328872,-1.503621 7.388355,-6.232416 7.390625,-11.004205 z m -2,0 c -0.004,3.346755 -1.84801,6.925216 -4.615234,8.471002 L 8.251954,16.427436 C 9.894583,15.594245 10.995305,13.91042 11,11.99 10.997601,10.080162 9.898599,8.3949065 8.25586,7.5602481 l 2.128907,-4.0374083 c 2.768279,1.5468605 4.613441,5.124622 4.615234,8.4729552 z"
     />
  <path
     style="opacity:0.35;fill:#555753"
     d="m 16,11.99 c -0.0044,3.693456 -3.4,9 -6.463618,9 L 7,16.882514 c 2.32345,-0.474265 3.994184,-2.515367 4,-4.886719 -0.003,-2.3735545 -1.674399,-4.4178688 -4,-4.8925781 L 9.4256,3.0471674 c 3.170981,-0.051372 6.572407,5.2247063 6.574401,8.9486276 z"
     />
</svg>
